dist/assets/coin.svg

<?xml version="1.0" encoding="utf-8"?><!-- Uploaded to: SVG Repo, www.svgrepo.com, Generator: SVG Repo Mixer Tools -->
<svg width="800px" height="800px" viewBox="0 0 24 24" fill="none" xmlns="http://www.w3.org/2000/svg">
<path d="M12 16H13C13.6667 16 15 15.6 15 14C15 12.4 13.6667 12 13 12H11C10.3333 12 9 11.6 9 10C9 8.4 10.3333 8 11 8H12M12 16H9M12 16V18M15 8H12M12 8V6M21 12C21 16.9706 16.9706 21 12 21C7.02944 21 3 16.9706 3 12C3 7.02944 7.02944 3 12 3C16.9706 3 21 7.02944 21 12Z" stroke="#000000" stroke-width="1.5" stroke-linecap="round" stroke-linejoin="round"/>
</svg>

<svg width="800" height="800" viewBox="0 0 24 24" fill="none" xmlns="http://www.w3.org/2000/svg"><path d="M12 16h1c.667 0 2-.4 2-2s-1.333-2-2-2h-2c-.667 0-2-.4-2-2s1.333-2 2-2h1m0 8H9m3 0v2m3-10h-3m0 0V6m9 6a9 9 0 1 1-18 0 9 9 0 0 1 18 0Z" stroke="#000" stroke-width="1.5" stroke-linecap="round" stroke-linejoin="round"/></svg>
